assets/icon-libido.svg

<?xml version="1.0" encoding="UTF-8"?>
<!DOCTYPE svg PUBLIC "-//W3C//DTD SVG 1.1//EN" "http://www.w3.org/Graphics/SVG/1.1/DTD/svg11.dtd">
<!-- Creator: CorelDRAW 2017 -->
<svg xmlns="http://www.w3.org/2000/svg" xml:space="preserve" width="100%" height="100%" version="1.1" style="shape-rendering:geometricPrecision; text-rendering:geometricPrecision; image-rendering:optimizeQuality; fill-rule:evenodd; clip-rule:evenodd"
viewBox="0 0 0.72058 1.56667"
 xmlns:xlink="http://www.w3.org/1999/xlink">
 <defs>
  <style type="text/css">
   <![CDATA[
    .str0 {stroke:#FE4F32;stroke-width:0.04;stroke-miterlimit:22.9256}
    .fil1 {fill:none}
    .fil0 {fill:#FE4F32}
   ]]>
  </style>
 </defs>
 <g id="Camada_x0020_1">
  <metadata id="CorelCorpID_0Corel-Layer"/>
  <g id="_1949625994560">
   <path class="fil0" d="M0.72058 1.39884c-0.0404,0.1419 -0.23635,0.16783 -0.36748,0.16783 -0.0375,0 -0.07506,-0.00165 -0.11227,-0.00652 -0.10445,-0.01366 -0.21138,-0.06012 -0.24083,-0.16131l0.05407 0c0.03026,0.07115 0.11649,0.1009 0.19335,0.11095 0.03495,0.00458 0.07044,0.00609 0.10568,0.00609 0.09911,0 0.26855,-0.01377 0.31313,-0.11704l0.05435 0z"/>
   <path class="fil1 str0" d="M0.42662 0.11175c0.0958,0.03373 0.16505,0.13024 0.16601,0.24317l0.00842 0.98683c0.00075,0.08765 -0.16541,0.09794 -0.24795,0.09794 -0.08349,0 -0.23329,-0.00925 -0.23404,-0.09794l-0.00842 -0.98683c-0.00098,-0.11542 0.07254,-0.21363 0.17209,-0.24528l-0.00007 -0.00876c-0.00036,-0.04449 0.03236,-0.08088 0.07192,-0.08088l0.00002 0c0.03956,0 0.07157,0.03641 0.07193,0.08088l0.00009 0.01087z"/>
   <path class="fil0" d="M0.31804 0.22264c-0.05057,0.01609 -0.08501,0.06733 -0.08857,0.12095l-0.05088 0c0.00393,-0.08178 0.06018,-0.15665 0.13945,-0.17343l0 0.05248zm-0.08861 0.16327l0.00048 0.057 -0.05079 0 -0.00048 -0.057 0.05079 0zm0.00084 0.09932l0.00048 0.057 -0.0508 0 -0.00048 -0.057 0.0508 0zm0.00083 0.09932l0.00048 0.057 -0.05079 0 -0.00048 -0.057 0.05079 0zm0.00084 0.09932l0.00048 0.057 -0.05079 0 -0.00048 -0.057 0.05079 0zm0.00083 0.09932l0.00049 0.05771 -0.05079 0 -0.00049 -0.05771 0.05079 0z"/>
  </g>
 </g>
</svg>

<svg xmlns="http://www.w3.org/2000/svg" width="100%" height="100%" fill-rule="evenodd" clip-rule="evenodd" image-rendering="optimizeQuality" shape-rendering="geometricPrecision" text-rendering="geometricPrecision" version="1.1" viewBox="0 0 .721 1.567" xml:space="preserve">
  <defs>
    <style type="text/css">
      .fil0{fill:#fe4f32}
    </style>
  </defs>
  <g id="Camada_x0020_1">
    <g id="_1949625994560">
      <path d="M.72 1.399c-.04.142-.236.168-.367.168a.865.865 0 0 1-.112-.007C.136 1.546.029 1.5 0 1.4h.054c.03.071.117.1.193.11.035.005.07.007.106.007.1 0 .269-.014.313-.117h.055z" class="fil0"/>
      <path fill="none" stroke="#fe4f32" stroke-miterlimit="22.926" stroke-width=".04" d="M.427.112c.095.033.165.13.166.243l.008.987c0 .087-.165.098-.248.098-.083 0-.233-.01-.234-.098L.111.355A.254.254 0 0 1 .283.11V.1c0-.044.032-.08.072-.08.04 0 .071.036.072.08v.012z"/>
      <path d="M.318.223a.136.136 0 0 0-.089.12H.18A.185.185 0 0 1 .318.17v.053zM.229.386v.057H.18V.386h.05zm.001.1v.056H.18V.485h.05zm.001.099v.057h-.05V.585h.05zm0 .099L.233.74h-.05V.684h.05zm.002.1V.84h-.05L.181.783h.05z" class="fil0"/>
    </g>
  </g>
</svg>
